public/illustrations/twitter.svg

<?xml version="1.0" encoding="UTF-8"?>
<svg width="602px" height="602px" viewBox="0 0 602 602" version="1.1" xmlns="http://www.w3.org/2000/svg" xmlns:xlink="http://www.w3.org/1999/xlink">
    <!-- Generator: Sketch 48.2 (47327) - http://www.bohemiancoding.com/sketch -->
    <title>Shape</title>
    <desc>Created with Sketch.</desc>
    <defs></defs>
    <g id="illistrations" stroke="none" stroke-width="1" fill="none" fill-rule="evenodd">
        <path d="M301,1 C135.314453,1 1,135.314453 1,301 C1,466.685547 135.314453,601 301,601 C466.685547,601 601,466.685547 601,301 C601,135.314453 466.685547,1 301,1 Z M473.407422,212.575 C473.578516,216.388281 473.666406,220.225 473.666406,224.081641 C473.666406,341.633594 384.189063,477.185547 220.566016,477.185547 C170.330078,477.185547 123.572266,462.457422 84.203125,437.217578 C91.1617188,438.040234 98.2433594,438.462109 105.423438,438.462109 C147.101172,438.462109 185.456641,424.237891 215.901953,400.380859 C176.975781,399.664844 144.124609,373.941016 132.801953,338.603125 C138.235938,339.640234 143.808203,340.198047 149.539844,340.198047 C157.652734,340.198047 165.511328,339.110547 172.976172,337.078516 C132.281641,328.902344 101.617188,292.950391 101.617188,249.851172 C101.617188,249.476172 101.617188,249.102344 101.626563,248.732031 C113.620703,255.394141 127.336328,259.396094 141.917969,259.857813 C118.046875,243.907422 102.34375,216.678906 102.34375,185.814063 C102.34375,169.512109 106.73125,154.229688 114.388281,141.092969 C158.262109,194.913672 223.810937,230.326563 297.742188,234.039063 C296.225781,227.524609 295.439453,220.737109 295.439453,213.763281 C295.439453,164.638281 335.271484,124.810938 384.395312,124.810938 C409.979687,124.810938 433.100781,135.613281 449.326563,152.900781 C469.589453,148.911719 488.627734,141.508984 505.819141,131.314844 C499.176953,152.088672 485.071094,169.521484 466.705469,180.530078 C484.699609,178.380859 501.842969,173.597266 517.796875,166.523828 C505.871875,184.364453 490.791016,200.03125 473.407422,212.575 Z" id="Shape" stroke="#9BC4BB" stroke-width="2" fill-rule="nonzero"></path>
    </g>
</svg>

<svg width="602" height="602" xmlns="http://www.w3.org/2000/svg">
    <path d="M301 1C135.314 1 1 135.314 1 301s134.314 300 300 300 300-134.314 300-300S466.686 1 301 1zm172.407 211.575c.172 3.813.26 7.65.26 11.507 0 117.552-89.478 253.104-253.101 253.104-50.236 0-96.994-14.729-136.363-39.968a180.7 180.7 0 0 0 21.22 1.244c41.678 0 80.034-14.224 110.479-38.081-38.926-.716-71.777-26.44-83.1-61.778a89.036 89.036 0 0 0 16.738 1.595 89.12 89.12 0 0 0 23.436-3.12c-40.694-8.176-71.359-44.128-71.359-87.227 0-.375 0-.749.01-1.119a88.605 88.605 0 0 0 40.291 11.126c-23.871-15.95-39.574-43.18-39.574-74.044 0-16.302 4.387-31.584 12.044-44.721 43.874 53.82 109.423 89.234 183.354 92.946-1.516-6.514-2.303-13.302-2.303-20.276 0-49.125 39.832-88.952 88.956-88.952 25.585 0 48.706 10.802 64.932 28.09a178.153 178.153 0 0 0 56.492-21.586c-6.642 20.774-20.748 38.206-39.114 49.215 17.995-2.15 35.138-6.933 51.092-14.006-11.925 17.84-27.006 33.507-44.39 46.051z" stroke="#9BC4BB" stroke-width="2" fill="none" fill-rule="evenodd"/>
</svg>
